!!!COM: Anon.
!!!OTL: Alai hoy
!!!AGN: monody
!!!AMT: irregular meter
!! page 197
**kern	**silbe
*ICvox	*
*clefG2	*
*k[]	*
*>[A,B]	*>[A,B]
*>A	*>A
*M12/8	*M12/8
=1-	=1-
4a	A-
8g	-lai
4a	hoy
8e	a-
4a	-la-
8g	-lai
4.a	hoy,
=2	=2
4a	ge-
8g	-re-
4a	-dain
8e	a-
4a	-la-
8g	-yeh
4.a	wey
=3	=3
4a	ge-
8g	-re-
4a	-dai
8e	Ma-
4a	-riam
8g	si-
4.a	-ma,
=4	=4
4a	bir-
8g	-ku-
4a	-ma
8e	te-
4a	-she-
8g	-ki-
4.a	-ma
=5	=5
4a	bir-
8g	-ku-
4a	-ma
8e	ye-
4a	-da-
8g	-ge-
4.a	-tai
=6	=6
4a	ye-
8g	-ku-
4a	-ta
8e	Ki-
4a	-da-
8g	-do-
4.a	-tai
=7	=7
4a	ye-
8g	-ku-
4a	-ta
8e	Ki-
4a	-da-
8g	-do
4.a	tain,
=8	=8
4a	Ke-
8g	-di-
4a	-jai
8e	Ke-
4a	-da-
8g	-di
4.a	jai,
=9	=9
4a	se-
8g	-Te-
4a	huwat
8e	la-
4a	-be-
8g	-li-
4.a	-jai,
=10	=10
4a	a-
8g	-be-
4a	-lij
8e	be-
4a	-two
8g	de-
4.a	-gni,
=11	=11
4a	Ce-
8g	-re-
4a	-Ka
8e	sa-
4a	-me-
8g	-chi-
4.a	-gni,
=12	=12
4a	Ce-
8g	-re-
4a	-Ka
8e	dim-
4a	-bul
8g	bo-
4.a	-Ka,
=13	=13
4a	a-
8g	-tse-
4a	-bet
8e	ge-
4a	-bach
8g	awi-
4.a	-Ka,
=14	=14
4a	a-
8g	-tse-
4a	-bet
8e	ya-
4a	-lu
8g	li-
4.a	-joch
=15	=15
4a	fe-
8g	-te-
4a	-gu
8e	fe-
4a	-ta-
8g	-te-
4.a	-gu
=16	=16
4a	be-
8g	-Kul-
4a	-biT
8e	as-
4a	-Ke-
8g	-me-
4.a	-Tu,
*>B	*>B
*M6/8	*M6/8
=17	=17
8f#	Kul-
4.a	-biT
(8a	Kul-
8g)	.
=18	=18
8f#	-biT
8a	a-
4a	-ran-
8a	-ba
8a	hai-
=19	=19
4a	-desh
8fn	Ku-
4.a	-TiT
=20	=20
8a+	ya-
8g	-ja
8f	Ko-
4.a	-lo
=21	=21
8b	sin-
8g	-dai
8f	Ko-
4.a	-lo
=22	=22
(8b	ya-
8g)	.
8f	-chin
8.a;	ti-
8.a;	-tesh
=23	=23
4.a	yachin
8a	ansh
8a	tolo
8r	.
==	==
*-	*-
!!!CNT: Ethiopia
!!!OCY: United States
!!!OCL: Ashenafi Kebede
!!!YOR: Ashenafi Kebede, "The Music of Ethiopia, Its Development and Cultural Setting"
!!!YOR: PhD dissertation, Wesleyan University, 1971
!!!PDT: 1971
!!!PPP: Middletown, Connecticut, United States of America
!!!YEC: Electronic Copyright 2000 David Huron
!!!YER: November 2000
!!!YEN: United States of America
!!!ENC: David Huron
!!!RDT: November 26, 2000
!!!EEV: Release 1.0
!!!AIN: vox
